X:1
%%titleformat T+T,C1
T:MÃ©lodie gavotte
T:(traditionnel)
C:arrangement et tablature: Yann-FaÃ±ch Perroches
M:none
L:1/8
%%titlefont Helvetica-Bold 20
%%subtitlefont Helvetica-Bold 16
%%tempofont Helvetica 14
%%setfont-1 Helvetica-Bold 12
%%setfont-2 Helvetica-Italic 10
Q:"$1mÃ©lodie$0   "3/8=66 "$2  tempo rubato"
%%staves [1 2]
%%timewarn 1
%%stretchlast 1
K:C
% this line is needed in each tune but the first
%%postscript /accordfirst 1 def
%%staffnonote 2			% needed for abcm2ps >= 7.6.x
V:1
%%sysstaffsep 1.6cm
d d/e/c3A B >GE3|EE^GB2cA3H[EAc]3::
V:2 stafflines=1 clef=none
%%tablature 0 30 accordh1 accordn1 accordb1
  ic ic/ic/"Am"ic3ic "G"ic >ic"Em7"ic3|ic"E"icicic2ic"Am"ic3ic3::
w:*  *  *  *      *   7     5' 4'     |4' 4'  x 7  6' *     *
w:7' 7' 9  8      7   *     *  *      |*  *   * *  *  7     578
w:*  *  *  A-     *   G-    *  E-     |*  E-  * *  *  A-    *
w:*  *  *  a-     *   g-    *  *      |*  e-  * *  *  a-    *
V:1
e e/d/f3f e/d/c3|defe3de2d/c/B3|
V:2
  ic ic/ic/"F"ic3ic "G"ic/ic/"C"ic3|ic "Dm"icic ic3ic ic2ic/ic/"E"ic3|
w:*  *  *  *     *  *     *  6'    |*  *     *  *  *  *  *  *  7 
w:9  9  7' 8'    8' 9     7' *     |7' 9     8' 9  7' 9  7' 8  *
w:*  *  *  F-    *  G-    *  C-    |D- *     *  *  *  *  *  *  E-
w:*  *  *  f-    *  g-    *  c-    |*  f-    *  *  *  *  *  *  e-
V:1
c d/e/c3A A >GE3|EE^GB2cA3H[EAc]3:|
V:2
  ic ic/ic/"F"ic3ic ic >"G"ic"C"ic3|ic "E"ic ic ic2ic "Am"ic3ic3:|
w:*  *  *  *     *  *  5'     4'   |4' 4'    x  7  6' 7      *
w:8  7' 9  8     7  7  *      *    |*  *     *  *  *  *      576
w:*  *  *  F-    *  *  G      C-   |*  E-    *  *  *  A-     *
w:*  *  *  f-    *  *  g      c    |*  e-    *  *  *  a-     *
V:1
M:12/8
Q:"$1gavotte$0   "3/8=146
|:d3c B AB2GE3|E2^GB2cA3A3:|
V:2
M:12/8
|:"Dm7"ic3ic ic ic "G"ic2ic"Em7"ic3|"E7"ic2icic2ic "Am"ic3ic3:|
w:*       *  *  *  7     6 4'      |4'     x 7  6' *      *
w:7'      8  6' 7  *     * *       |*      * *  *  7      7
w:D       f  *  *  G     * E       |e      * e  *  A      a
V:1
|:e2ef2fe2dc3|d e fe2de2cB3|
V:2
|:"Am"ic2ic"F"ic2ic "G"ic2ic"C"ic3|"Dm7"ic ic ic "(Dm7/9)"ic2ic ic2ic"Em7"ic3|
w:*      * *     *  *     *  6'   |*       *  *  *           *  *  * 7
w:9      9 8'    8' 9     7' *    |7'      9  8' 9           7' 9  8 *
w:a      * F     *  G     *  C    |D       *  *  f           *  f  * E
V:1
x12:|
V:2
x4"^premiÃ¨re phrase - first phrase"x4x4:|


% adapted from abctab2ps

% -- bataille

% insert the fonts from abctab2ps
%%format frFrancisque.ps

%%beginps
% ! stack error in frFrancisque.ps !
pop
% width x y n tab6h - tablature header
/tab6h{
	/tabfont{/FrenchTabfont 14 selectfont}!
	/chofont{/Palatino-Roman 13 selectfont}!
	pop .75 SLW
%test
%2 copy M -10 0 RL 0 30 RL 10 0 RL stroke
	pop pop pop
	tabfont
	/barh 60 def
}!
% dx dy dslur - draw a down slur/tie
/dslur{
%	RL stroke
	1 index 4 div dup 3 mul			% dx dy x1 x2
	2 index 2 index mul 4 index div 8 sub exch	% dx dy x1 y1 x2
	3 index 1 index mul 5 index div 8 sub	% dx dy x1 y1 x2 y2
	3 index 3 index 3 index 3 index 9 index 9 index RC
	4 index neg add 2 sub 6 1 roll 4 index neg add 6 1 roll
	2 index neg add 2 sub 4 1 roll 2 index neg add 4 1 roll
	exch neg exch neg RC
	fill
}!
% char tabbadd - add the char to the bourdon string
/tabbadd{
	tabbstr length dup 1 add string
	dup tabbstr exch copy pop /tabbstr exch def
	exch tabbstr 3 1 roll put
}!
% functions for tablature notes
/str( )def
/tabtiex 0 def
/tabtiext 0 def
/tabindex 0 def
/tablong 0 def
/tabring 0 def
% x y h n tflag - flags
/tflag{
	1 SLW 3 index 3 index 104 add M
	dup 0 lt{
		2.5 7 RM
		0 -1 0 -7 -5 -7 RC -2 0 0 7 5 7 RC
		currentpoint stroke moveto}
	{	3 7 RM
		0 -1 0 -7 -5 -7 RC -2 0 0 7 5 7 RC
		currentpoint fill moveto -.5 0 RM
	}ifelse
	dup -2 gt{
		0 13 RL
		currentpoint stroke moveto
	}if 
	dup 0 gt{
		1.2 -.2 RL currentpoint
		-1.2 -1.2 RL fill moveto
		{
			2.4 -.4 7 0 3.5 -5 RC
			-1.2 -1.2 RL currentpoint
			3.5 5 -1.1 4.6 -3.5 5 RC 1.2 1.2 RL
			fill moveto
		}repeat
	}{pop}ifelse
}!
% character not handled
/actno{(char not handled: )print = }!
% action table
/tabaction [256{/actno}repeat] def
% x y h char actchr - print a character
/actchr{
	tabbourd 0 eq{
		3 index 3 index 3 index add M
		tabtiex 0 ne{		% tie waiting to be drawn
			currentpoint
			1 index tabtiex exch sub 1 index tabtiey exch sub
			dslur
			/tabtiex 0 def
			M
		}if
		str 0 3 -1 roll put str showc
		12 sub
	}{tabbadd}ifelse}!
tabaction 97/actchr put	% 'a'
tabaction 98/actchr put	% 'b'
tabaction 99/actchr put	% 'c'
tabaction 100/actchr put	% 'd'
tabaction 101/actchr put	% 'e'
tabaction 102/actchr put	% 'f'
% '"' - enter in quoted string
/act34{	pop
	/inquote 1 def
	chofont
	/quoted 0 string def
	1 index 17 add}!
tabaction 34/act34 put
% '(' - slur start
/act40{	pop
	/tabslurx 3 index def
	tabbourd 0 eq{2 copy add 2 sub}
	{1 index 18 add}ifelse
	 /tabslury exch def}!
tabaction 40/act40 put
% ')' - slur end
/act41{	pop
	tabbourd 0 eq{3 copy add 10 add}
	{2 index 2 index 18 add}ifelse
	2 copy M exch tabslurx exch sub exch tabslury exch sub
	dslur}!
tabaction 41/act41 put
% ',' - go to the next line or count the bourdon number
/act44{pop
	tabbourd 0 eq{12 sub}
	{/tabbourd tabbourd 1 add def}ifelse}!
tabaction 44/act44 put
% '-' - tie start
/act45{	pop
	/tabtiext 3 index def
	2 copy add 12 add /tabtiey exch def}!
tabaction 45/act45 put
% '.' - index finger
/act46{pop
	/tabindex 1 def}!
tabaction 46/act46 put
% '/' - quaver
/act47{pop
	1 tflag}!
tabaction 47/act47 put
% '1' - black note
/act49{pop
	0 tflag}!
tabaction 49/act49 put
% '2' - white note
/act50{pop
	-1 tflag}!
tabaction 50/act50 put
% ';' - ring finger
/act59{pop
	/tabring 1 def}!
tabaction 59/act59 put
% 'L' - long note
/act76{pop
	/tablong 1 def}!
tabaction 76/act76 put
% 'X' - mordent
/act88{pop
	2 index 2 index 2 index add M 7 -4.5 RM
	.7 SLW 5 7 RL -5 0 RM 5 -7 RL stroke}!
tabaction 88/act88 put
% 'y' - 
/act121{pop
	tabbourd 0 eq{12 sub}if
	}!
tabaction 121/act121 put
% '{' - bourdon start
/act123{pop
	/tabbourd 1 def
	/tabbstr()def}!
tabaction 123/act123 put
% '}' - bourdon end
/act125{pop
	2 index tabbourd -3 mul add 2 index 18 add M
	.75 SLW tabbourd 1 sub {6 10 RL -2.5 -10 RM}repeat currentpoint stroke
	M -1 2 RM tabbstr show
	/tabbourd 0 def}!
tabaction 125/act125 put
% string x y n tab6n - tablature note
/tab6n{
	/tabtiex tabtiext def
	/tabtiext 0 def
	/inquote 0 def
	/tabbourd 0 def
	pop barh 33 add 4 -1 roll	% stack: x y h string
	{
		inquote 0 eq{		% stack: x y h char
			tabaction 1 index get load exec}
		{			% inside double quote
					% stack: x y h y' char
			dup 34 eq{			% double quote
				pop
				3 index 1 index M quoted showc
				pop
				/inquote 0 def
				tabfont
			}{dup 59 eq{			% semicomma --> newline
				pop
				3 index 1 index M quoted showc
				13 sub
				/quoted 0 string def}
			{	quoted length dup 1 add string	% char n str
				dup quoted exch copy pop /quoted exch def
				exch quoted 3 1 roll put
			}ifelse}ifelse
		}ifelse
	}forall
	tabindex 0 ne{			% index finger
		add M 2 5 RM
		currentpoint 1.3 0 360 arc fill
		/tabindex 0 def}
	{tablong 0 ne{			% long note
		add M -4 4 RM 1.2 SLW 12 3 RL stroke
		/tablong 0 def}
	{tabring 0 ne{			% ring finger
		add M -2 5 RM
		currentpoint 2 copy 1.3 0 360 arc %fill
		M 4 0 RM
		currentpoint 2 copy 1.3 0 360 arc %fill
		M 4 0 RM
		currentpoint 1.3 0 360 arc fill
		/tabring 0 def}
	{pop pop pop}ifelse}ifelse}ifelse}!
% string x y n tab6b - tablature bar
/tab6b{
	0 eq{			% first line only
		.8 SLW
		32 add
		2 index length 1 sub -1 0{
			3 index exch get
			dup 124 eq{			% '|'
				pop
				2 copy M 0 barh RL stroke
				exch 4 sub exch}
			{dup 58 eq{			% ':'
				pop
				2 copy 6 add
				5{
					2 copy 2 copy M 1.2 0 360 arc
					12 add
				}repeat fill
				pop pop
				exch 4 sub exch}
			{	pop			% '[' or ']'
				2 copy M 0 barh RL -3 0 RL 0 barh neg RL fill
				exch 6 sub exch
			}ifelse}ifelse
		}for
	}if
	pop pop pop}!
%%endps

U:i=!invisible!

